X: 27191
T: Miss Montgomery
R: reel
M: 4/4
K: Cmajor
c2 cG EFGF|c2 cA Bcde|c2 cG EFGE|Dddc Bcdf||
ecgc ec g2|ecgc efge|ecgc ec g2|fedc Bcdf|
ecgc ec g2|ecgc efga|gefd ecdB|cAGE Ddde||

